build/img/9-resources/graduate.svg

<svg width="40" height="40" viewBox="0 0 40 40" fill="none" xmlns="http://www.w3.org/2000/svg">
<g clip-path="url(#clip0)">
<path d="M39.1136 6.74565L20.4536 0.0789783C20.1589 -0.025024 19.8375 -0.025024 19.5429 0.0789783L0.887547 6.74565C0.358799 6.93624 0.00634766 7.43793 0.00634766 7.99998C0.00634766 8.56203 0.358799 9.06372 0.887547 9.25431L10.0009 12.5103V16.667C10.0009 19.259 18.9775 19.3336 20.0009 19.3336C21.0242 19.3336 30.0009 19.259 30.0009 16.667V12.5103L32.0009 11.8003V13.3336C32.0009 14.07 32.5978 14.667 33.3342 14.667H34.6675C35.4039 14.667 36.0009 14.07 36.0009 13.3336V11.3336C35.9989 11.0249 35.9245 10.721 35.7836 10.4463L39.1169 9.25431C39.6456 9.06372 39.9981 8.56203 39.9981 7.99998C39.9981 7.43793 39.6456 6.93624 39.1169 6.74565H39.1136ZM28.6675 15.2003C26.1282 14.0443 20.7775 14.0003 20.0009 14.0003C19.2242 14.0003 13.8735 14.0443 11.3342 15.2003V9.39231C11.7342 8.87898 14.8782 8.00031 20.0009 8.00031C25.1236 8.00031 28.2675 8.87898 28.6675 9.39231V15.2003ZM20.0009 18.0003C15.0675 18.0003 11.9695 17.1856 11.3902 16.667C11.9695 16.1483 15.0689 15.3336 20.0009 15.3336C24.9329 15.3336 28.0322 16.1483 28.6115 16.667C28.0322 17.1856 24.9342 18.0003 20.0009 18.0003ZM32.3136 10.2703L30.0009 11.095V9.33364C30.0009 6.74164 21.0242 6.66698 20.0009 6.66698C18.9775 6.66698 10.0009 6.74164 10.0009 9.33364V11.0943L1.33421 8.00031L20.0102 1.33364L33.3342 6.09498V9.45631C32.9127 9.60611 32.5534 9.89266 32.3136 10.2703ZM34.6675 13.3336H33.3342V11.3336C33.3342 10.9655 33.6327 10.667 34.0009 10.667C34.3691 10.667 34.6675 10.9655 34.6675 11.3336V13.3336ZM34.6675 9.42965V6.57165L38.6676 8.00031L34.6675 9.42965Z" fill="#333333"/>
<path d="M38 20.667C37.96 20.6669 37.92 20.6704 37.8807 20.6777C31.9656 21.5973 25.986 22.0396 20 22.0003C14.014 22.0396 8.03445 21.5973 2.11933 20.6777C2.0799 20.6709 2.04 20.6674 2 20.667C1.53333 20.667 0 21.1957 0 28.0003C0 34.805 1.53333 35.3337 2 35.3337C2.04003 35.3328 2.07993 35.3288 2.11933 35.3217C6.66447 34.6017 11.2523 34.1835 15.8527 34.0697L14.5513 37.191C14.3514 37.6908 14.473 38.2618 14.8591 38.6369C15.2452 39.0119 15.8196 39.1168 16.3133 38.9023L16.8233 38.6843L17.044 39.1917C17.2524 39.6836 17.7357 40.0024 18.27 40.0003H18.2867C18.8249 39.9961 19.3075 39.6676 19.5087 39.1683L20.6667 36.3963L21.8207 39.1577C22.0201 39.6616 22.5047 39.9947 23.0467 40.0003H23.0667C23.5973 40.0025 24.078 39.6877 24.288 39.2003L24.5107 38.689L25.0127 38.9043C25.5086 39.1232 26.0877 39.0189 26.4761 38.6408C26.8645 38.2627 26.9842 37.6866 26.7787 37.185L25.5027 34.125C29.6504 34.2719 33.7853 34.6726 37.884 35.325C37.9223 35.3313 37.9612 35.3342 38 35.3337C38.4667 35.3337 40 34.805 40 28.0003C40 21.1957 38.4667 20.667 38 20.667ZM22.1333 23.3137C22.4102 24.3316 22.5714 25.3776 22.614 26.4317C21.1024 25.7288 19.3295 25.8936 17.9733 26.863C17.9392 25.6658 17.7858 24.475 17.5153 23.3083C18.3229 23.3252 19.1511 23.3337 20 23.3337C20.7287 23.3337 21.436 23.3257 22.1333 23.3137ZM20.6667 34.0003C18.8257 34.0003 17.3333 32.5079 17.3333 30.667C17.3333 28.826 18.8257 27.3337 20.6667 27.3337C22.5076 27.3337 24 28.826 24 30.667C23.9978 32.507 22.5067 33.9981 20.6667 34.0003ZM2 22.3337C2.51081 24.1773 2.73565 26.0885 2.66667 28.0003C2.73565 29.9122 2.51081 31.8233 2 33.667C1.48919 31.8233 1.26435 29.9122 1.33333 28.0003C1.26435 26.0885 1.48919 24.1773 2 22.3337ZM3.34667 33.7803C3.71133 32.723 4 30.9537 4 28.0003C4 25.047 3.71133 23.2777 3.346 22.219C7.58239 22.8041 11.8477 23.1564 16.1227 23.2743C16.5225 24.8168 16.7056 26.4074 16.6667 28.0003C16.6667 28.097 16.6667 28.189 16.6627 28.2817C15.8626 29.6094 15.782 31.2499 16.448 32.6497L16.4187 32.7203C12.0448 32.8275 7.68052 33.1819 3.34667 33.7817V33.7803ZM18.2713 38.667L17.7847 37.547C17.6383 37.2107 17.2478 37.0558 16.9107 37.2003L15.7887 37.6963L17.352 33.9483C17.9938 34.5987 18.8126 35.0461 19.7067 35.235L18.2713 38.667ZM24.4227 37.2003C24.0856 37.0558 23.695 37.2107 23.5487 37.547L23.0553 38.6557L21.626 35.2337C22.5207 35.0447 23.3402 34.5971 23.9827 33.9463L25.5427 37.6797L24.4227 37.2003ZM37.8667 33.967C33.5835 33.3078 29.2646 32.9071 24.9333 32.767L24.886 32.6523C25.7244 30.8856 25.365 28.7829 23.9873 27.395C23.9822 26.0124 23.8225 24.6348 23.5113 23.2877C28.3185 23.18 33.1137 22.7609 37.8667 22.033C38.176 22.5583 38.6667 24.6363 38.6667 28.0003C38.6667 31.3643 38.1727 33.4417 37.8667 33.967Z" fill="#333333"/>
</g>
<defs>
<clipPath id="clip0">
<rect width="40" height="40" fill="white"/>
</clipPath>
</defs>
</svg>

<svg width="40" height="40" fill="none" xmlns="http://www.w3.org/2000/svg"><g clip-path="url(#clip0)" fill="#333"><path d="M39.114 6.746L20.454.079a1.368 1.368 0 00-.911 0L.888 6.746a1.333 1.333 0 000 2.508L10 12.51v4.157c0 2.592 8.976 2.667 10 2.667 1.023 0 10-.075 10-2.667V12.51l2-.71v1.534c0 .736.597 1.333 1.333 1.333h1.333c.737 0 1.334-.597 1.334-1.333v-2a1.972 1.972 0 00-.217-.888l3.333-1.192a1.333 1.333 0 000-2.508h-.003zM28.668 15.2C26.128 14.044 20.777 14 20 14c-.777 0-6.128.044-8.667 1.2V9.392C11.734 8.88 14.878 8 20.001 8c5.123 0 8.266.879 8.666 1.392V15.2zM20 18c-4.934 0-8.032-.814-8.61-1.333.579-.519 3.678-1.333 8.61-1.333 4.932 0 8.031.814 8.61 1.333-.579.519-3.677 1.333-8.61 1.333zm12.313-7.73L30 11.095V9.334c0-2.592-8.977-2.667-10-2.667-1.024 0-10 .075-10 2.667v1.76L1.334 8 20.01 1.334l13.324 4.761v3.361c-.421.15-.78.437-1.02.814zm2.353 3.064h-1.333v-2a.667.667 0 011.333 0v2zm0-3.904V6.572l4 1.428-4 1.43zM38 20.667c-.04 0-.08.003-.12.01A111.625 111.625 0 0120 22c-5.986.04-11.966-.403-17.88-1.322a.746.746 0 00-.12-.011c-.467 0-2 .529-2 7.333 0 6.805 1.533 7.334 2 7.334a.77.77 0 00.12-.012c4.544-.72 9.132-1.139 13.733-1.252L14.55 37.19a1.328 1.328 0 001.762 1.711l.51-.218.221.508c.208.492.692.81 1.226.808h.017a1.329 1.329 0 001.222-.832l1.158-2.772 1.154 2.762c.2.504.684.837 1.226.842h.02a1.324 1.324 0 001.221-.8l.223-.511.502.215a1.329 1.329 0 001.766-1.719l-1.276-3.06c4.147.147 8.282.548 12.381 1.2.038.006.077.01.116.009.467 0 2-.529 2-7.334 0-6.804-1.533-7.333-2-7.333zm-15.867 2.647c.277 1.018.438 2.064.481 3.118a4.626 4.626 0 00-4.64.431 18.009 18.009 0 00-.459-3.555 118.806 118.806 0 004.618.006zM20.667 34a3.333 3.333 0 110-6.666 3.333 3.333 0 010 6.666zM2 22.334c.51 1.843.736 3.755.667 5.666A18.698 18.698 0 012 33.667 18.698 18.698 0 011.333 28 18.698 18.698 0 012 22.334zM3.347 33.78C3.71 32.723 4 30.954 4 28c0-2.953-.289-4.722-.654-5.781 4.236.585 8.502.937 12.777 1.055.4 1.543.583 3.133.544 4.726 0 .097 0 .189-.004.282a4.618 4.618 0 00-.215 4.368l-.03.07c-4.373.108-8.737.462-13.071 1.062v-.002zm14.924 4.887l-.486-1.12a.667.667 0 00-.874-.347l-1.122.496 1.563-3.748a4.662 4.662 0 002.355 1.287l-1.436 3.432zm6.152-1.467a.667.667 0 00-.874.347l-.494 1.109-1.429-3.422a4.667 4.667 0 002.357-1.288l1.56 3.734-1.12-.48zm13.444-3.233c-4.283-.66-8.602-1.06-12.934-1.2l-.047-.115a4.64 4.64 0 00-.899-5.257 18.551 18.551 0 00-.476-4.107c4.808-.108 9.603-.527 14.356-1.255.309.525.8 2.603.8 5.967 0 3.364-.494 5.442-.8 5.967z"/></g><defs><clipPath id="clip0"><path fill="#fff" d="M0 0h40v40H0z"/></clipPath></defs></svg>
